X:1
T:Title
%%score { ( 1 3 ) | ( 2 4 ) }
L:1/8
Q:1/4=108
M:3/4
K:G
V:1 treble nm="Grand Piano"
V:3 treble 
V:2 treble 
V:4 treble 
V:1
 B2 B2 B2 | d4 B2 | [CFA]4 [B,G]2 | [B,G]4 [B,EG]2 | A2 z2 z2 | [G,B,D]4 [G,DG]2 | B2 d2 c2 | %7
w: H.~Anderson * *|||||||
[M:2/4] A4 |[M:1/4] [Fd]2 |[M:3/4] [Gd]4 [Gd]2 | [^Ge]4 [EGB]2 | [EAd]4 [EAc]2 | [CE]4 [CEA]2 | %13
w: ||||||
 D2- [DF]2 E2 | F4 A2 | [B,G]6- |[M:2/4] [B,G]4 |[M:1/4] [DG]2 |[M:3/4] [FA]4 [FA]2 | %19
w: ||||||
 A2 z2 [DFc]2 | B6- | B4 z2 | ^c4 c2 | ^c2 f2 e2 | d6- |[M:2/4] d4 |[M:1/4] [Fc]2 |[M:3/4] B4 A2 | %28
w: |||||||||
 c4 B2 | d4 ^d2 | z2 z2 .c2 | G4 B2 | B4 A2 | [B,G]6- | [B,G]6 |] %35
w: |||||||
V:2
 [G,DG]2 [G,DG]2 [G,DG]2 | [G,B,G]4 [G,DG]2 | D,4 E,2 | E,4 E,2 | z2 G2 C,2 | G,,4 B,,2 | %6
 [D,D]2- [D,B,D]2 [D,A,D]2 |[M:2/4] [D,F,D]4 |[M:1/4] [D,C]2 |[M:3/4] [G,B,]4 [G,B,]2 | %10
 [E,B,]4 E,2 | A,4 A,2 | A,4 C,2 | z2 A,2 [D,G,D]2 | [D,A,C]4 [D,F,C]2 | [G,,G,]6- | %16
[M:2/4] [G,,G,]4 |[M:1/4] [G,B,]2 |[M:3/4] [D,D]4 [D,D]2 | z2[K:treble] d2 D,2 | [G,DG]4 [G,B,]2 | %21
 [G,D]4 [E,E]2 | [A,EA]4 [A,EA]2 | E2 z2 z2 | [D,D]4 [D,^G,]2 |[M:2/4] [D,A,]4 |[M:1/4] [D,D]2 | %27
[M:3/4] [G,DG]4 [F,D]2 | [A,DF]4 [G,DG]2 | [B,DG]4 [G,B,G]2 | [CG]4[K:bass] [C,C]2 | %31
 [D,B,D]4 [D,G,D]2 | [D,F,D]4 [D,F,C]2 | [G,,G,]6- | [G,,G,]6 |] %35
V:3
 x6 | x6 | x6 | x6 | [CE]4 [G,CE]2 | x6 | x6 |[M:2/4] x4 |[M:1/4] x2 |[M:3/4] x6 | x6 | x6 | x6 | %13
 [B,G]2 z2 z2 | x6 | x6 |[M:2/4] x4 |[M:1/4] x2 |[M:3/4] x6 | F4 z2 | z2 z2 G2 | G4 [^Gd]2 | x6 | %23
 x6 | F4 =F2 |[M:2/4] F4 |[M:1/4] x2 |[M:3/4] x6 | x6 | x6 | e4 E-[EA] | x6 | x6 | x6 | x6 |] %35
V:4
 x6 | x6 | x6 | x6 | C,4 z2 | x6 | G,2 z2 z2 |[M:2/4] x4 |[M:1/4] x2 |[M:3/4] x6 | x6 | x6 | x6 | %13
 D,4 z2 | x6 | x6 |[M:2/4] x4 |[M:1/4] x2 |[M:3/4] x6 | [D,D]4[K:treble] z2 | x6 | x6 | x6 | %23
 [A,A]2- [A,DA]2 [A,^CG]2 | x6 |[M:2/4] x4 |[M:1/4] x2 |[M:3/4] x6 | x6 | x6 | x4[K:bass] x2 | x6 | %32
 x6 | x6 | x6 |] %35

